X:27
T:Petit bonnet, grand bonnet
C:trad
A:Normandie
O:France
M:2/4
L:1/8
Q:1/4=130
K:Bb
F B/2B/2|BA Gc|B2:|Bd/2c/2|Bd Bd|c||
d/2c/2 B d/2c/2|B d/2c/2 Bd|c2 AB|B A/2G/2 F A/2c/2|
B2 FB|B A/2G/2 Fc|B2||
